img/chains/Terra.svg

<svg viewBox="0 0 52 49" fill="none" xmlns="http://www.w3.org/2000/svg">
    <path d="M22.3591 39.82C23.7891 45.1 28.8991 49.13 31.4791 48.97C31.5691 48.97 41.2692 47.15 46.5792 38.26C50.7092 31.34 49.3091 24.66 43.6891 24.51C41.6891 24.66 19.6891 29.76 22.3591 39.82Z" fill="url(#paint0_linear_5416_18)"/>
    <path d="M43.1595 5.89989C39.6223 2.88335 35.3036 0.929459 30.7027 0.264092C26.1017 -0.401275 21.4064 0.249052 17.1595 2.13989C16.621 2.36429 16.0967 2.62144 15.5895 2.90989C15.2495 3.08989 14.8995 3.27989 14.5895 3.47989H14.6795C13.6709 4.17034 12.7824 5.02165 12.0495 5.99989C4.99954 15.3299 28.6995 22.1499 41.3895 22.1699C47.2295 26.3699 48.8695 10.3499 43.1595 5.89989Z" fill="url(#paint1_linear_5416_18)"/>
    <path d="M18.5995 6.09C15.3395 11 4.47945 14.46 2.68945 13.92L2.90945 13.47C3.51684 12.2619 4.21553 11.1018 4.99945 10C6.59109 7.86038 8.49577 5.97256 10.6495 4.4C11.3146 3.89757 12.0055 3.43026 12.7195 3C13.8146 2.37389 15.0483 2.03023 16.3095 2C21.1495 2.09 18.6195 6 18.5995 6" fill="url(#paint2_linear_5416_18)"/>
    <path d="M15.9195 40.79C16.1595 42.33 15.9195 48.42 15.5995 48.94C15.3295 48.94 14.7695 48.99 13.1295 48.07C12.2703 47.5816 11.4421 47.0405 10.6495 46.45C9.58474 45.661 8.58182 44.7918 7.64954 43.85C6.70512 42.9201 5.83574 41.917 5.04954 40.85C3.44805 38.6775 2.20248 36.264 1.35954 33.7C0.91781 32.3961 0.583364 31.0583 0.359543 29.7C-0.0938061 26.9015 -0.0938061 24.0484 0.359543 21.25C0.585674 19.8921 0.920074 18.5545 1.35954 17.25C1.43954 16.99 1.52954 16.73 1.62954 16.47C3.49954 18.97 5.62954 21.23 7.51954 23.75C9.40954 26.27 11.6895 30.07 12.1795 30.91C15.1795 36.1 15.7195 39.31 15.9495 40.85" fill="url(#paint3_linear_5416_18)"/>
    <path d="M51.9998 25.43C52.0032 28.7054 51.3892 31.952 50.1898 35C47.1298 38.29 26.4798 30.18 26.2798 30.09C23.4498 28.85 14.8598 25.09 14.0798 19.15C12.9998 10.62 30.2298 4.67995 37.8198 4.44995C38.7298 4.44995 41.4998 4.44995 43.1098 5.80995C45.9075 8.25514 48.1486 11.2716 49.6821 14.656C51.2157 18.0405 52.006 21.7143 51.9998 25.43Z" fill="url(#paint4_linear_5416_18)"/>
    <path d="M37.9998 48.5299C35.7498 49.5899 33.2698 48.8199 33.9198 46.6199C35.1498 42.4099 45.9198 38.0799 48.3298 37.8499C48.6198 37.8499 48.7498 38.0199 48.6198 38.2499C46.1335 42.6199 42.4484 46.187 37.9998 48.5299Z" fill="url(#paint5_linear_5416_18)"/>
    <defs>
        <linearGradient id="paint0_linear_5416_18" x1="35.5491" y1="48.97" x2="35.5491" y2="24.51" gradientUnits="userSpaceOnUse">
            <stop stop-color="#4366C2"/>
            <stop offset="0.15" stop-color="#3458B8"/>
            <stop offset="0.4" stop-color="#2348AC"/>
            <stop offset="0.67" stop-color="#193FA5"/>
            <stop offset="1" stop-color="#163CA3"/>
        </linearGradient>
        <linearGradient id="paint1_linear_5416_18" x1="28.7295" y1="22.8599" x2="28.7295" y2="-0.000105412" gradientUnits="userSpaceOnUse">
            <stop stop-color="#4366C2"/>
            <stop offset="0.15" stop-color="#3458B8"/>
            <stop offset="0.4" stop-color="#2348AC"/>
            <stop offset="0.67" stop-color="#193FA5"/>
            <stop offset="1" stop-color="#163CA3"/>
        </linearGradient>
        <linearGradient id="paint2_linear_5416_18" x1="2.67945" y1="8.02" x2="19.2795" y2="8.02" gradientUnits="userSpaceOnUse">
            <stop stop-color="#58C66B"/>
            <stop offset="1" stop-color="#5491F6"/>
        </linearGradient>
        <linearGradient id="paint3_linear_5416_18" x1="-0.000456767" y1="32.68" x2="16.0195" y2="32.68" gradientUnits="userSpaceOnUse">
            <stop stop-color="#58C66B"/>
            <stop offset="1" stop-color="#5491F6"/>
        </linearGradient>
        <linearGradient id="paint4_linear_5416_18" x1="14.0298" y1="20.12" x2="51.9998" y2="20.12" gradientUnits="userSpaceOnUse">
            <stop stop-color="#58C66B"/>
            <stop offset="1" stop-color="#5491F6"/>
        </linearGradient>
        <linearGradient id="paint5_linear_5416_18" x1="33.8298" y1="43.4199" x2="48.6898" y2="43.4199" gradientUnits="userSpaceOnUse">
            <stop stop-color="#58C66B"/>
            <stop offset="1" stop-color="#5491F6"/>
        </linearGradient>
    </defs>
</svg>

<svg xmlns="http://www.w3.org/2000/svg" xmlns:xlink="http://www.w3.org/1999/xlink" viewBox="0 0 52 49">
    <defs>
        <linearGradient id="ebbb6cda-0389-45d8-bb1c-376d5bf36abc" x1="35.55" y1="48.97" x2="35.55" y2="24.51" gradientUnits="userSpaceOnUse">
            <stop offset="0" stop-color="#4366c2"/>
            <stop offset="0.15" stop-color="#3458b8"/>
            <stop offset="0.4" stop-color="#2348ac"/>
            <stop offset="0.67" stop-color="#193fa5"/>
            <stop offset="1" stop-color="#163ca3"/>
        </linearGradient>
        <linearGradient id="f31efcdf-db45-41d1-9fdf-f0c98c440807" x1="28.73" y1="22.86" x2="28.73" y2="0" xlink:href="#ebbb6cda-0389-45d8-bb1c-376d5bf36abc">
            <stop offset="0" stop-color="#4366c2"/>
            <stop offset="0.15" stop-color="#3458b8"/>
            <stop offset="0.4" stop-color="#2348ac"/>
            <stop offset="0.67" stop-color="#193fa5"/>
            <stop offset="1" stop-color="#163ca3"/>
        </linearGradient>
        <linearGradient id="fccc71bd-5025-4d54-b43c-83ee4283abe6" x1="2.68" y1="8.02" x2="19.28" y2="8.02" gradientUnits="userSpaceOnUse">
            <stop offset="0" stop-color="#58c66b"/>
            <stop offset="1" stop-color="#5491f6"/>
        </linearGradient>
        <linearGradient id="f353812a-3fef-4520-a39f-fc15f94407a0" x1="0" y1="32.68" x2="16.02" y2="32.68" xlink:href="#fccc71bd-5025-4d54-b43c-83ee4283abe6">
            <stop offset="0" stop-color="#58c66b"/>
            <stop offset="1" stop-color="#5491f6"/>
        </linearGradient>
        <linearGradient id="ae916250-479e-4f6a-ba90-eed93ba23120" x1="14.03" y1="20.12" x2="52" y2="20.12" xlink:href="#fccc71bd-5025-4d54-b43c-83ee4283abe6">
            <stop offset="0" stop-color="#58c66b"/>
            <stop offset="1" stop-color="#5491f6"/>
        </linearGradient>
        <linearGradient id="abdf6be7-d18d-4907-97fe-9b3e82537090" x1="33.83" y1="43.42" x2="48.69" y2="43.42" xlink:href="#fccc71bd-5025-4d54-b43c-83ee4283abe6">
            <stop offset="0" stop-color="#58c66b"/>
            <stop offset="1" stop-color="#5491f6"/>
        </linearGradient>
    </defs>
    <g id="ae6f7ef0-565d-4a22-8f2c-325befffa09b" data-name="Layer 2">
        <g id="bcd3e4b3-41de-4e5f-b039-dc1868c624a4" data-name="Layer 6">
            <path d="M22.36,39.82c1.43,5.28,6.54,9.31,9.12,9.15.09,0,9.79-1.82,15.1-10.71,4.13-6.92,2.73-13.6-2.89-13.75-2,.15-24,5.25-21.33,15.31" fill="url(#ebbb6cda-0389-45d8-bb1c-376d5bf36abc)"/>
            <path d="M43.16,5.9h0a24.63,24.63,0,0,0-26-3.76,14.3,14.3,0,0,0-1.57.77c-.34.18-.69.37-1,.57l.09,0A11.17,11.17,0,0,0,12.05,6C5,15.33,28.7,22.15,41.39,22.17,47.23,26.37,48.87,10.35,43.16,5.9Z" fill="url(#f31efcdf-db45-41d1-9fdf-f0c98c440807)"/>
            <path d="M18.6,6.09C15.34,11,4.48,14.46,2.69,13.92v0l.22-.45A26.58,26.58,0,0,1,5,10,26.57,26.57,0,0,1,10.65,4.4,23.91,23.91,0,0,1,12.72,3a7.6,7.6,0,0,1,3.59-1c4.84.09,2.31,4,2.29,4" fill="url(#fccc71bd-5025-4d54-b43c-83ee4283abe6)"/>
            <path d="M15.92,40.79c.24,1.54,0,7.63-.32,8.15-.27,0-.83.05-2.47-.87a24,24,0,0,1-2.48-1.62,26,26,0,0,1-3-2.6,25.13,25.13,0,0,1-2.6-3,25.44,25.44,0,0,1-3.69-7.15,25.27,25.27,0,0,1-1-4,26.42,26.42,0,0,1,0-8.45,25.81,25.81,0,0,1,1-4q.12-.39.27-.78h0c1.87,2.5,4,4.76,5.89,7.28s4.17,6.32,4.66,7.16c3,5.19,3.54,8.4,3.77,9.94" fill="url(#f353812a-3fef-4520-a39f-fc15f94407a0)"/>
            <path d="M52,25.43A26.06,26.06,0,0,1,50.19,35c-3.06,3.29-23.71-4.82-23.91-4.91-2.83-1.24-11.42-5-12.2-10.94C13,10.62,30.23,4.68,37.82,4.45c.91,0,3.68,0,5.29,1.36A26,26,0,0,1,52,25.43" fill="url(#ae916250-479e-4f6a-ba90-eed93ba23120)"/>
            <path d="M38,48.53c-2.25,1.06-4.73.29-4.08-1.91,1.23-4.21,12-8.54,14.41-8.77.29,0,.42.17.29.4A26.34,26.34,0,0,1,38,48.53" fill="url(#abdf6be7-d18d-4907-97fe-9b3e82537090)"/>
        </g>
    </g>
</svg>
